X:200
M:3/4
L:1/4
K:E
c | c2 B   | c2   B  | B    A2          | G2 c | (c B) G | (F G) F/C/ | E D2 | C2 G | B2 B | (c B) A | G F2 | E2 !sintro!E | G2 G | F2 E | E D2 | C2 !eintro!|]
